X:983
T:Bonnie Banks o' Loch Lomond, The
C:Joe Buchanan's Scottish Tome - Page 568.2
I:568 2
Z:Carl Allison
R:Waltz
L:1/4
M:3/4
K:D
A, | "D"D3/2 (D E/) | "D7"F3/2 (E D/) | E3/2 (E D/) | "D"B,3/2 A, B,/ | "D"D3/2 D D/ | "G"D3/2 (F A/) | "G"B3 | "D"A2 "D7"A |
"G"B3/2 (B A/) | "D"F3/2 (F A/) | "Em"G F E | D "G"B,2 | "A7"(A, B,)<D | "Bm"(F A)<"D7"B | "G"(A F) "D"E- | E D>A, |
"D"D3/2 (D E/) | "D7"F3/2 (F E/) | D3/2 D B,/ | "D"A, A, B, | "D"D3/2 D D/ | "G"D3/2 F A/ | "G"B3 | "D"A2 "D7"A |
"G"B/<B/ (B A) | "D"F3/2 F A/ | "Em"G F E | "G"D B,2 | "A7"A,3/2 B, {D}D/ | "Bm"F "D7"A<B | "G"(A F) "Em"E- | E "D"D2 |]

